X:269
T: Dank - und Freudenlied
N: A0623A
O: Europa, Mitteleuropa, Deutschland
N: Luth. Gsgb 1524
R: Romanze, Ballade, Lied, religioeses Lied
M: 4/1
L: 1/2
K: G
G | G2D2G2c2 | B2A2G2z
G | A2c2B2A2 | E4F4G2z
G | G2D2G2c2 | B2A2G2z
G | A2c2B2A2 | E4F4G2z
G | c2B2c2d2 | d2c2d2z
f | e2c2d3c | B2A2G2z
B | A2D2G2A2 | B4A4G3

